X:1
T:Cranberry Bogs
M:3/4
L:1/4
K:F
 C3/4 C/4| C F3/2 F/2| F2 G3/4 G/4| G F A| A2 z/2 A/2| c c3/2 c/2|\
 c A G| F E G| G2 C| C F3/2 F/2| F F z| G FG/2-A/2| A z F3/4 F/4| c c d|\
 c3/2 B/2 A| G AG/2-F/2| F2||
